epam-assets/icon-sources/18/editor-video.svg

<svg width="18" height="18" viewBox="0 0 18 18" fill="none" xmlns="http://www.w3.org/2000/svg">
<g id="18/editor-video">
<path id="icon" fill-rule="evenodd" clip-rule="evenodd" d="M14.25 14.25H3.75V3.75H14.25V14.25ZM14.25 2.25H3.75C2.92157 2.25 2.25 2.92157 2.25 3.75V14.25C2.25 15.0784 2.92157 15.75 3.75 15.75H14.25C15.0784 15.75 15.75 15.0784 15.75 14.25V3.75C15.75 2.9175 15.075 2.25 14.25 2.25ZM7.5 6V12L11.25 9L7.5 6Z" fill="#6C6F80"/>
</g>
</svg>

<svg xmlns="http://www.w3.org/2000/svg" width="18" height="18" fill="none" viewBox="0 0 18 18">
  <path fill="#6C6F80" fill-rule="evenodd" d="M14.25 14.25H3.75V3.75h10.5v10.5Zm0-12H3.75a1.5 1.5 0 0 0-1.5 1.5v10.5a1.5 1.5 0 0 0 1.5 1.5h10.5a1.5 1.5 0 0 0 1.5-1.5V3.75a1.5 1.5 0 0 0-1.5-1.5ZM7.5 6v6l3.75-3L7.5 6Z" clip-rule="evenodd"/>
</svg>
